assets/assets/svg/location.svg

<svg fill="none" height="18" viewBox="0 0 14 18" width="14" xmlns="http://www.w3.org/2000/svg"><path d="m7.27237 17s-5.72746-6.8072-6.02782-9.45358c-.300354-2.64642 1.35678-6.807069 6.02782-6.53359 4.67103.27348 5.72753 3.47516 5.72753 6.53359 0 3.05848-5.72753 9.45358-5.72753 9.45358z" fill="#1e4437" stroke="#fff"/><path d="m7.17952 9.11898c1.48161 0 2.68268-1.17078 2.68268-2.615 0-1.44423-1.20107-2.615-2.68268-2.615-1.4816 0-2.68268 1.17077-2.68268 2.615 0 1.44422 1.20108 2.615 2.68268 2.615z" fill="#02d06c"/><path d="m7.17963 8.63168c1.2057 0 2.18312-.95275 2.18312-2.12803 0-1.17529-.97742-2.12804-2.18312-2.12804s-2.18311.95275-2.18311 2.12804c0 1.17528.97741 2.12803 2.18311 2.12803z" stroke="#fff"/></svg>

<svg width="14" height="18" viewBox="0 0 14 18" fill="none" xmlns="http://www.w3.org/2000/svg">
<path d="M7.27237 17C7.27237 17 1.54491 10.1928 1.24455 7.54642C0.944196 4.9 2.60133 0.739351 7.27237 1.01283C11.9434 1.28631 12.9999 4.48799 12.9999 7.54642C12.9999 10.6049 7.27237 17 7.27237 17Z" fill="#1E4437" stroke="white"/>
<path d="M7.17952 9.11898C8.66113 9.11898 9.8622 7.9482 9.8622 6.50398C9.8622 5.05975 8.66113 3.88898 7.17952 3.88898C5.69792 3.88898 4.49684 5.05975 4.49684 6.50398C4.49684 7.9482 5.69792 9.11898 7.17952 9.11898Z" fill="#02D06C"/>
<path d="M7.17963 8.63168C8.38533 8.63168 9.36275 7.67893 9.36275 6.50365C9.36275 5.32836 8.38533 4.37561 7.17963 4.37561C5.97393 4.37561 4.99652 5.32836 4.99652 6.50365C4.99652 7.67893 5.97393 8.63168 7.17963 8.63168Z" stroke="white"/>
</svg>
